;FLAVOR:RepRap
;TIME:3432
;Filament used: 3.56735m
;Layer height: 0.15
;MINX:40.203
;MINY:14.7
;MINZ:0.3
;MAXX:59.797
;MAXY:85.3
;MAXZ:70.05
;TARGET_MACHINE.NAME:Unknown
;Generated with Cura_SteamEngine 5.9.0
T0
M104 S200
M109 S200
M82 ;absolute extrusion mode
G28 ;Home
G1 Z15.0 F6000 ;Move the platform down 15mm
G92 E0
M83 ;relative extrusion mode
G1 F1500 E-6.5
;LAYER_COUNT:466
;LAYER:0
M107
G0 F3600 X41.122 Y19.821 Z0.3
;TYPE:SKIRT
G1 F1500 E6.5
G1 F1800 X42.117 Y18.05 E0.10135
G1 X42.891 Y17.049 E0.06313
G1 X44.245 Y15.962 E0.08663
G1 X46.24 Y14.967 E0.11122
G1 X48.047 Y14.728 E0.09094
G1 X52.102 Y14.7 E0.20231
G1 X54.177 Y15.124 E0.10566
G1 X56.05 Y16.181 E0.1073
G1 X56.933 Y16.872 E0.05594
G1 X58.042 Y18.249 E0.08821
G1 X59.026 Y20.223 E0.11004
G1 X59.248 Y21.746 E0.07679
G1 X59.301 Y45.744 E1.19727
G1 X59.552 Y46.299 E0.03039
G1 X59.797 Y48.47 E0.109
G1 X59.745 Y52.239 E0.18805
G1 X59.527 Y53.68 E0.07271
G1 X59.3 Y54.224 E0.02941
G1 X59.3 Y78.122 E1.19228
G1 X58.878 Y80.179 E0.10476
G1 X57.883 Y81.95 E0.10135
G1 X57.109 Y82.951 E0.06313
G1 X55.755 Y84.038 E0.08663
G1 X53.76 Y85.033 E0.11122
G1 X51.953 Y85.272 E0.09094
G1 X47.798 Y85.3 E0.2073
G1 X45.783 Y84.86 E0.1029
G1 X43.996 Y83.861 E0.10214
G1 X43.053 Y83.122 E0.05977
G1 X41.972 Y81.776 E0.08613
G1 X40.974 Y79.76 E0.11223
G1 X40.752 Y78.254 E0.07595
G1 X40.699 Y54.256 E1.19727
G1 X40.448 Y53.701 E0.03039
G1 X40.203 Y51.53 E0.109
G1 X40.255 Y47.761 E0.18805
G1 X40.473 Y46.322 E0.07261
G1 X40.7 Y45.778 E0.02941
G1 X40.7 Y21.878 E1.19238
G1 X41.122 Y19.821 E0.10476
G0 F3600 X41.502 Y19.962
G1 F1800 X42.433 Y18.295 E0.09526
G1 X43.177 Y17.333 E0.06067
G1 X44.464 Y16.299 E0.08236
G1 X46.357 Y15.356 E0.10551
G1 X48.1 Y15.125 E0.08772
G1 X52.063 Y15.1 E0.19772
G1 X54.035 Y15.503 E0.10042
G1 X55.803 Y16.496 E0.10117
G1 X56.65 Y17.159 E0.05366
G1 X57.705 Y18.469 E0.08392
G1 X58.639 Y20.343 E0.10446
G1 X58.852 Y21.804 E0.07366
G1 X58.901 Y45.83 E1.19866
G1 X59.162 Y46.407 E0.03159
G1 X59.397 Y48.464 E0.10329
G1 X59.345 Y52.233 E0.18805
G1 X59.132 Y53.619 E0.06996
G1 X58.9 Y54.14 E0.02845
G1 X58.9 Y78.081 E1.19442
G1 X58.498 Y80.038 E0.09967
G1 X57.567 Y81.705 E0.09526
G1 X56.823 Y82.667 E0.06067
G1 X55.536 Y83.701 E0.08236
G1 X53.643 Y84.644 E0.10551
G1 X51.9 Y84.875 E0.08772
G1 X47.84 Y84.9 E0.20256
G1 X45.927 Y84.482 E0.09769
G1 X44.243 Y83.546 E0.09612
G1 X43.337 Y82.836 E0.05743
G1 X42.308 Y81.555 E0.08197
G1 X41.361 Y79.642 E0.10649
G1 X41.148 Y78.196 E0.07292
G1 X41.099 Y54.17 E1.19866
G1 X40.838 Y53.593 E0.03159
G1 X40.603 Y51.536 E0.10329
G1 X40.655 Y47.767 E0.18805
G1 X40.868 Y46.383 E0.06986
G1 X41.1 Y45.862 E0.02845
G1 X41.1 Y21.919 E1.19452
G1 X41.502 Y19.962 E0.09967
G0 F3600 X41.882 Y20.103
G1 F1800 X42.749 Y18.54 E0.08917
G1 X43.464 Y17.615 E0.05833
G1 X44.681 Y16.638 E0.07786
G1 X46.474 Y15.744 E0.09996
G1 X48.152 Y15.522 E0.08445
G1 X52.023 Y15.5 E0.19313
G1 X53.895 Y15.883 E0.09533
G1 X55.556 Y16.811 E0.09492
G1 X56.369 Y17.448 E0.05153
G1 X57.366 Y18.685 E0.07926
G1 X58.252 Y20.463 E0.09911
G1 X58.456 Y21.862 E0.07053
G1 X58.501 Y45.926 E1.20056
G1 X58.765 Y46.453 E0.02941
G1 X58.997 Y48.458 E0.1007
G1 X58.945 Y52.227 E0.18805
G1 X58.745 Y53.506 E0.06459
G1 X58.5 Y54.056 E0.03004
G1 X58.5 Y78.039 E1.19652
G1 X58.118 Y79.897 E0.09463
G1 X57.251 Y81.46 E0.08917
G1 X56.536 Y82.385 E0.05833
G1 X55.319 Y83.362 E0.07786
G1 X53.526 Y84.256 E0.09996
G1 X51.848 Y84.478 E0.08445
G1 X47.883 Y84.5 E0.19782
G1 X46.068 Y84.103 E0.09269
G1 X44.49 Y83.231 E0.08995
G1 X43.621 Y82.55 E0.05508
G1 X42.644 Y81.334 E0.07782
G1 X41.748 Y79.524 E0.10076
G1 X41.544 Y78.138 E0.06989
G1 X41.499 Y54.074 E1.20056
G1 X41.235 Y53.547 E0.02941
G1 X41.003 Y51.542 E0.1007
G1 X41.055 Y47.773 E0.18805
G1 X41.255 Y46.496 E0.06449
G1 X41.5 Y45.946 E0.03004
G1 X41.5 Y21.961 E1.19662
G1 X41.882 Y20.103 E0.09463
G0 F3600 X42.262 Y20.243
G1 F1800 X43.099 Y18.734 E0.08609
G1 X43.749 Y17.9 E0.05275
G1 X44.9 Y16.975 E0.07367
G1 X46.591 Y16.133 E0.09424
G1 X48.205 Y15.919 E0.08123
G1 X51.983 Y15.9 E0.18849
G1 X53.754 Y16.262 E0.09018
G1 X55.309 Y17.126 E0.08875
G1 X56.088 Y17.737 E0.04939
G1 X57.027 Y18.902 E0.07465
G1 X57.865 Y20.583 E0.09371
G1 X58.06 Y21.92 E0.06741
G1 X58.101 Y46.022 E1.20246
G1 X58.376 Y46.57 E0.03059
G1 X58.597 Y48.452 E0.09454
G1 X58.545 Y52.221 E0.18805
G1 X58.358 Y53.393 E0.05921
G1 X58.1 Y53.971 E0.03158
G1 X58.1 Y77.997 E1.19866
G1 X57.738 Y79.757 E0.08964
G1 X56.901 Y81.266 E0.08609
G1 X56.251 Y82.1 E0.05275
G1 X55.1 Y83.025 E0.07367
G1 X53.409 Y83.867 E0.09424
G1 X51.795 Y84.081 E0.08123
G1 X47.927 Y84.1 E0.19298
G1 X46.21 Y83.724 E0.08769
G1 X44.737 Y82.916 E0.08382
G1 X43.905 Y82.264 E0.05274
G1 X42.983 Y81.117 E0.07342
G1 X42.135 Y79.403 E0.09541
G1 X41.94 Y78.08 E0.06672
G1 X41.899 Y53.978 E1.20246
G1 X41.624 Y53.43 E0.03059
G1 X41.403 Y51.548 E0.09454
G1 X41.455 Y47.779 E0.18805
G1 X41.642 Y46.609 E0.05911
G1 X41.9 Y46.031 E0.03158
G1 X41.9 Y22.003 E1.19876
G1 X42.262 Y20.243 E0.08964
G0 F3600 X42.642 Y20.383
G1 F1800 X43.449 Y18.928 E0.08301
G1 X44.035 Y18.183 E0.04729
G1 X45.117 Y17.314 E0.06924
G1 X46.708 Y16.522 E0.08867
G1 X48.258 Y16.316 E0.07801
G1 X51.943 Y16.3 E0.18385
G1 X53.615 Y16.642 E0.08514
G1 X55.062 Y17.441 E0.08247
G1 X55.805 Y18.023 E0.04709
G1 X56.69 Y19.122 E0.0704
G1 X57.478 Y20.703 E0.08813
G1 X57.664 Y21.978 E0.06428
G1 X57.701 Y46.118 E1.20435
G1 X57.987 Y46.688 E0.03182
G1 X58.197 Y48.447 E0.08838
G1 X58.15 Y52.158 E0.18516
G1 X57.971 Y53.279 E0.05664
G1 X57.7 Y53.886 E0.03316
G1 X57.7 Y77.955 E1.20081
G1 X57.358 Y79.617 E0.08465
G1 X56.551 Y81.072 E0.08301
G1 X55.965 Y81.817 E0.04729
G1 X54.883 Y82.686 E0.06924
G1 X53.292 Y83.478 E0.08867
G1 X51.742 Y83.684 E0.07801
G1 X47.971 Y83.7 E0.18814
G1 X46.349 Y83.345 E0.08284
G1 X44.984 Y82.601 E0.07756
G1 X44.186 Y81.976 E0.05057
G1 X43.321 Y80.899 E0.06892
G1 X42.522 Y79.285 E0.08985
G1 X42.336 Y78.022 E0.06369
G1 X42.299 Y53.882 E1.20435
G1 X42.013 Y53.312 E0.03182
G1 X41.803 Y51.553 E0.08838
G1 X41.85 Y47.842 E0.18516
G1 X42.029 Y46.723 E0.05654
G1 X42.3 Y46.116 E0.03316
G1 X42.3 Y22.045 E1.20091
G1 X42.642 Y20.383 E0.08465
G0 F3600 X43.022 Y20.523
G1 F1800 X43.799 Y19.122 E0.07993
G1 X44.32 Y18.468 E0.04172
G1 X45.336 Y17.651 E0.06504
G1 X46.827 Y16.909 E0.08309
G1 X48.26 Y16.716 E0.07214
G1 X51.903 Y16.7 E0.18175
G1 X53.475 Y17.022 E0.08006
G1 X54.815 Y17.756 E0.07623
G1 X55.524 Y18.312 E0.04495
G1 X56.351 Y19.338 E0.06575
G1 X57.091 Y20.823 E0.08278
G1 X57.268 Y22.036 E0.06116
G1 X57.301 Y46.214 E1.20625
G1 X57.598 Y46.806 E0.03304
G1 X57.797 Y48.442 E0.08222
G1 X57.755 Y52.095 E0.18226
G1 X57.584 Y53.165 E0.05406
G1 X57.3 Y53.802 E0.0348
G1 X57.3 Y77.913 E1.2029
G1 X56.978 Y79.477 E0.07966
G1 X56.201 Y80.878 E0.07993
G1 X55.68 Y81.532 E0.04172
G1 X54.664 Y82.349 E0.06504
G1 X53.173 Y83.091 E0.08309
G1 X51.74 Y83.284 E0.07214
G1 X48.015 Y83.3 E0.18584
G1 X46.489 Y82.966 E0.07793
G1 X45.231 Y82.286 E0.07134
G1 X44.47 Y81.69 E0.04822
G1 X43.657 Y80.678 E0.06476
G1 X42.909 Y79.167 E0.08412
G1 X42.732 Y77.964 E0.06066
G1 X42.699 Y53.786 E1.20625
G1 X42.402 Y53.194 E0.03304
G1 X42.203 Y51.558 E0.08222
G1 X42.245 Y47.905 E0.18226
G1 X42.416 Y46.837 E0.05396
G1 X42.7 Y46.2 E0.0348
G1 X42.7 Y22.087 E1.203
G1 X43.022 Y20.523 E0.07966
G0 F3600 X43.402 Y20.662
G1 F1800 X44.112 Y19.371 E0.07351
G1 X44.604 Y18.754 E0.03937
G1 X45.555 Y17.988 E0.06092
G1 X46.946 Y17.296 E0.07751
G1 X48.262 Y17.116 E0.06627
G1 X51.863 Y17.1 E0.17966
G1 X53.337 Y17.402 E0.07507
G1 X54.568 Y18.071 E0.0699
G1 X55.243 Y18.601 E0.04282
G1 X56.012 Y19.554 E0.06109
G1 X56.704 Y20.943 E0.07742
G1 X56.872 Y22.094 E0.05803
G1 X56.901 Y46.309 E1.20809
G1 X57.209 Y46.924 E0.03432
G1 X57.397 Y48.438 E0.07611
G1 X57.36 Y52.032 E0.17931
G1 X57.197 Y53.051 E0.05148
G1 X56.9 Y53.717 E0.03638
G1 X56.9 Y77.871 E1.20505
G1 X56.598 Y79.338 E0.07472
G1 X55.888 Y80.629 E0.07351
G1 X55.396 Y81.246 E0.03937
G1 X54.445 Y82.012 E0.06092
G1 X53.054 Y82.704 E0.07751
G1 X51.738 Y82.884 E0.06627
G1 X48.059 Y82.9 E0.18355
G1 X46.63 Y82.587 E0.07298
G1 X45.478 Y81.971 E0.06517
G1 X44.754 Y81.404 E0.04588
G1 X43.993 Y80.457 E0.06061
G1 X43.296 Y79.049 E0.07838
G1 X43.128 Y77.906 E0.05764
G1 X43.099 Y53.691 E1.20809
G1 X42.791 Y53.076 E0.03432
G1 X42.603 Y51.562 E0.07611
G1 X42.64 Y47.968 E0.17931
G1 X42.803 Y46.951 E0.05139
G1 X43.1 Y46.285 E0.03638
G1 X43.1 Y22.129 E1.20515
G1 X43.402 Y20.662 E0.07472
G1 F1500 E-6.5
G0 F3600 X44.425 Y19.62
G1 F1500 E6.5
G1 F1800 X44.89 Y19.037 E0.0372
G1 X45.771 Y18.327 E0.05645
G1 X47.065 Y17.683 E0.07211
G1 X48.264 Y17.516 E0.0604
G1 X51.823 Y17.5 E0.17756
G1 X53.199 Y17.782 E0.07008
G1 X54.321 Y18.386 E0.06357
G1 X54.962 Y18.889 E0.04065
G1 X55.673 Y19.771 E0.05652
G1 X56.317 Y21.063 E0.07202
G1 X56.476 Y22.152 E0.05491
G1 X56.501 Y46.404 E1.20994
G1 X56.82 Y47.042 E0.03559
G1 X56.997 Y48.434 E0.07001
G1 X56.965 Y51.969 E0.17637
G1 X56.81 Y52.937 E0.04891
G1 X56.5 Y53.633 E0.03801
G1 X56.5 Y77.829 E1.20714
G1 X56.218 Y79.2 E0.06983
G1 X55.575 Y80.38 E0.06704
G1 X55.11 Y80.963 E0.0372
G1 X54.229 Y81.673 E0.05645
G1 X52.935 Y82.317 E0.07211
G1 X51.736 Y82.484 E0.0604
G1 X48.103 Y82.5 E0.18125
G1 X46.77 Y82.208 E0.06808
G1 X45.667 Y81.618 E0.06241
G1 X45.039 Y81.119 E0.04002
G1 X44.329 Y80.236 E0.05653
G1 X43.683 Y78.931 E0.07265
G1 X43.524 Y77.848 E0.05461
G1 X43.499 Y53.596 E1.20994
G1 X43.18 Y52.958 E0.03559
G1 X43.003 Y51.566 E0.07001
G1 X43.035 Y48.031 E0.17637
G1 X43.19 Y47.065 E0.04881
G1 X43.5 Y46.369 E0.03801
G1 X43.5 Y22.171 E1.20724
G1 X43.782 Y20.8 E0.06983
G1 X44.425 Y19.62 E0.06704
G0 F3600 X45.174 Y19.322
G1 F1800 X45.991 Y18.664 E0.05234
G1 X47.184 Y18.07 E0.06649
G1 X48.266 Y17.916 E0.05453
G1 X51.783 Y17.9 E0.17547
G1 X53.061 Y18.162 E0.06509
G1 X54.131 Y18.738 E0.06063
G1 X54.678 Y19.174 E0.0349
G1 X55.336 Y19.991 E0.05234
G1 X55.93 Y21.183 E0.06644
G1 X56.08 Y22.21 E0.05178
G1 X56.101 Y46.499 E1.21178
G1 X56.431 Y47.16 E0.03686
G1 X56.597 Y48.431 E0.06395
G1 X56.57 Y51.906 E0.17337
G1 X56.423 Y52.821 E0.04623
G1 X56.1 Y53.548 E0.03969
G1 X56.1 Y77.787 E1.20929
G1 X55.838 Y79.062 E0.06494
G1 X55.262 Y80.131 E0.06058
G1 X54.826 Y80.678 E0.0349
G1 X54.009 Y81.336 E0.05234
G1 X52.816 Y81.93 E0.06649
G1 X51.734 Y82.084 E0.05453
G1 X48.147 Y82.1 E0.17896
G1 X46.91 Y81.829 E0.06318
G1 X45.856 Y81.265 E0.05964
G1 X45.325 Y80.836 E0.03406
G1 X44.665 Y80.015 E0.05255
G1 X44.07 Y78.813 E0.06691
G1 X43.92 Y77.79 E0.05158
G1 X43.899 Y53.501 E1.21178
G1 X43.569 Y52.84 E0.03686
G1 X43.403 Y51.569 E0.06395
G1 X43.43 Y48.094 E0.17337
G1 X43.577 Y47.179 E0.04623
G1 X43.9 Y46.453 E0.03964
G1 X43.9 Y22.213 E1.20934
G1 X44.162 Y20.938 E0.06494
G1 X44.738 Y19.869 E0.06058
G1 X45.174 Y19.322 E0.0349
G1 F1500 E-6.5
G0 F3600 X46.211 Y19.001
G1 F1500 E6.5
G1 F1800 X47.303 Y18.457 E0.06087
G1 X48.268 Y18.316 E0.04866
G1 X51.743 Y18.3 E0.17337
G1 X52.923 Y18.542 E0.0601
G1 X53.941 Y19.09 E0.05768
G1 X54.391 Y19.456 E0.02894
G1 X54.999 Y20.211 E0.04836
G1 X55.543 Y21.303 E0.06087
G1 X55.684 Y22.268 E0.04866
G1 X55.701 Y46.594 E1.21363
G1 X56.044 Y47.281 E0.03831
G1 X56.197 Y48.428 E0.05773
G1 X56.175 Y51.842 E0.17033
G1 X56.036 Y52.706 E0.04366
G1 X55.7 Y53.462 E0.04127
G1 X55.7 Y77.746 E1.21153
G1 X55.458 Y78.924 E0.06
G1 X54.91 Y79.941 E0.05764
G1 X54.544 Y80.391 E0.02894
G1 X53.789 Y80.999 E0.04836
G1 X52.697 Y81.543 E0.06087
G1 X51.732 Y81.684 E0.04866
G1 X48.191 Y81.7 E0.17666
G1 X47.05 Y81.45 E0.05828
G1 X46.078 Y80.93 E0.055
G1 X45.611 Y80.552 E0.02997
G1 X45.001 Y79.794 E0.04854
G1 X44.457 Y78.695 E0.06118
G1 X44.316 Y77.732 E0.04856
G1 X44.299 Y53.406 E1.21363
G1 X43.956 Y52.719 E0.03831
G1 X43.803 Y51.572 E0.05773
G1 X43.825 Y48.158 E0.17033
G1 X43.964 Y47.294 E0.04366
G1 X44.3 Y46.538 E0.04127
G1 X44.3 Y22.254 E1.21153
G1 X44.542 Y21.076 E0.06
G1 X45.09 Y20.059 E0.05764
G1 X45.456 Y19.609 E0.02894
G1 X46.211 Y19.001 E0.04836
G1 F1500 E-6.5
G0 F3600 X47.423 Y18.844
G1 F1500 E6.5
G1 F1800 X48.326 Y18.712 E0.04553
G1 X51.703 Y18.7 E0.16848
G1 X52.786 Y18.922 E0.05515
G1 X53.694 Y19.405 E0.05131
G1 X54.079 Y19.707 E0.02441
G1 X54.662 Y20.431 E0.04638
G1 X55.156 Y21.423 E0.05529
G1 X55.288 Y22.326 E0.04553
G1 X55.301 Y46.689 E1.21548
G1 X55.656 Y47.399 E0.0396
G1 X55.8 Y48.481 E0.05446
G1 X55.78 Y51.778 E0.16449
G1 X55.649 Y52.591 E0.04108
G1 X55.3 Y53.377 E0.04291
G1 X55.3 Y77.705 E1.21373
G1 X55.078 Y78.786 E0.05506
G1 X54.595 Y79.694 E0.05131
G1 X54.293 Y80.079 E0.02441
G1 X53.569 Y80.662 E0.04638
G1 X52.577 Y81.156 E0.05529
G1 X51.674 Y81.288 E0.04553
G1 X48.235 Y81.3 E0.17157
G1 X47.19 Y81.071 E0.05337
G1 X46.267 Y80.577 E0.05223
G1 X45.898 Y80.27 E0.02395
G1 X45.339 Y79.575 E0.0445
G1 X44.844 Y78.576 E0.05562
G1 X44.712 Y77.674 E0.04548
G1 X44.699 Y53.311 E1.21548
G1 X44.344 Y52.601 E0.0396
G1 X44.2 Y51.519 E0.05446
G1 X44.22 Y48.222 E0.16449
G1 X44.351 Y47.409 E0.04108
G1 X44.7 Y46.623 E0.04291
G1 X44.7 Y22.295 E1.21373
G1 X44.922 Y21.214 E0.05506
G1 X45.405 Y20.306 E0.05131
G1 X45.707 Y19.921 E0.02441
G1 X46.431 Y19.338 E0.04638
G1 X47.423 Y18.844 E0.05529
G0 F3600 X48.384 Y19.108
G1 F1800 X51.663 Y19.1 E0.16359
G1 X52.65 Y19.302 E0.05026
G1 X53.455 Y19.726 E0.04539
G1 X53.767 Y19.958 E0.0194
G1 X54.325 Y20.651 E0.04439
G1 X54.769 Y21.543 E0.04971
G1 X54.892 Y22.384 E0.0424
G1 X54.901 Y46.784 E1.21732
G1 X55.269 Y47.52 E0.04105
G1 X55.4 Y48.479 E0.04829
G1 X55.385 Y51.714 E0.1614
G1 X55.262 Y52.476 E0.03851
G1 X54.973 Y53.127 E0.03554
G1 X54.9 Y53.249 E0.00709
G1 X54.9 Y77.664 E1.21807
G1 X54.698 Y78.65 E0.05021
G1 X54.274 Y79.455 E0.04539
G1 X54.042 Y79.767 E0.0194
G1 X53.349 Y80.325 E0.04439
G1 X52.457 Y80.769 E0.04971
G1 X51.616 Y80.892 E0.0424
G1 X48.279 Y80.9 E0.16648
G1 X47.33 Y80.692 E0.04847
G1 X46.456 Y80.224 E0.04946
G1 X46.21 Y80.019 E0.01598
G1 X45.677 Y79.356 E0.04244
G1 X45.231 Y78.457 E0.05007
G1 X45.108 Y77.616 E0.0424
G1 X45.099 Y53.216 E1.21732
G1 X44.731 Y52.48 E0.04105
G1 X44.6 Y51.521 E0.04829
G1 X44.615 Y48.286 E0.1614
G1 X44.738 Y47.524 E0.03851
G1 X45.027 Y46.873 E0.03554
G1 X45.1 Y46.751 E0.00709
G1 X45.1 Y22.336 E1.21807
G1 X45.302 Y21.35 E0.05021
G1 X45.726 Y20.545 E0.04539
G1 X45.958 Y20.233 E0.0194
G1 X46.651 Y19.675 E0.04439
G1 X47.543 Y19.231 E0.04971
G1 X48.384 Y19.108 E0.0424
G0 F3600 X48.442 Y19.504
G1 F1800 X51.623 Y19.5 E0.1587
G1 X52.513 Y19.682 E0.04532
G1 X53.268 Y20.08 E0.04258
G1 X53.488 Y20.249 E0.01384
G1 X53.986 Y20.867 E0.0396
G1 X54.382 Y21.663 E0.04436
G1 X54.496 Y22.442 E0.03928
G1 X54.501 Y46.879 E1.21917
G1 X54.882 Y47.641 E0.0425
G1 X55 Y48.478 E0.04217
G1 X54.99 Y51.65 E0.15825
G1 X54.875 Y52.361 E0.03593
G1 X54.607 Y52.965 E0.03297
G1 X54.5 Y53.13 E0.00981
G1 X54.5 Y77.623 E1.22196
G1 X54.318 Y78.513 E0.04532
G1 X53.92 Y79.268 E0.04258
G1 X53.751 Y79.488 E0.01384
G1 X53.133 Y79.986 E0.0396
G1 X52.337 Y80.382 E0.04436
G1 X51.558 Y80.496 E0.03928
G1 X48.323 Y80.5 E0.16139
G1 X47.47 Y80.313 E0.04357
G1 X46.645 Y79.871 E0.04669
G1 X46.522 Y79.768 E0.008
G1 X46.015 Y79.137 E0.04038
G1 X45.618 Y78.337 E0.04456
G1 X45.504 Y77.558 E0.03928
G1 X45.499 Y53.121 E1.21917
G1 X45.118 Y52.359 E0.0425
G1 X45 Y51.522 E0.04217
G1 X45.01 Y48.35 E0.15825
G1 X45.125 Y47.639 E0.03593
G1 X45.393 Y47.035 E0.03297
G1 X45.5 Y46.87 E0.00981
G1 X45.5 Y22.377 E1.22196
G1 X45.682 Y21.487 E0.04532
G1 X46.08 Y20.732 E0.04258
G1 X46.249 Y20.512 E0.01384
G1 X46.867 Y20.014 E0.0396
G1 X47.663 Y19.618 E0.04436
G1 X48.442 Y19.504 E0.03928
G0 F3600 X48.5 Y19.9
G1 F1800 X51.582 Y19.9 E0.15376
G1 X52.378 Y20.063 E0.04054
G1 X53.082 Y20.434 E0.0397
G1 X53.207 Y20.537 E0.00808
G1 X53.647 Y21.083 E0.03498
G1 X53.995 Y21.783 E0.039
G1 X54.1 Y22.5 E0.03615
G1 X54.1 Y46.997 E1.22216
G1 X54.166 Y47.098 E0.00602
G1 X54.495 Y47.76 E0.03688
G1 X54.6 Y48.477 E0.03615
G1 X54.595 Y51.586 E0.15511
G1 X54.488 Y52.246 E0.03336
G1 X54.241 Y52.803 E0.0304
G1 X54.1 Y53.004 E0.01225
G1 X54.1 Y77.582 E1.2262
G1 X53.937 Y78.378 E0.04054
G1 X53.566 Y79.082 E0.0397
G1 X53.463 Y79.207 E0.00808
G1 X52.917 Y79.647 E0.03498
G1 X52.217 Y79.995 E0.039
G1 X51.5 Y80.1 E0.03615
G1 X48.368 Y80.1 E0.15626
G1 X47.61 Y79.934 E0.03871
G1 X46.834 Y79.518 E0.04393
G1 X46.354 Y78.92 E0.03826
